X: 7423
T:Mazurka de Samatan
R:Mazurka
M:3/4
O:France
K:G
D2|B2BABc|B2G2D2|B2BABc|A4D2|\
A2AGAB|A2F2D2|A2AGAB|G4Bc|\
d2d2ed|c2A2AB|c2c2dc|B4GA|\
B2B2cB|A2F2D2|A2AFAB|G4||
